X: 30500
T: Olinda, The
R: waltz
M: 3/4
K: Dmajor
CD|E2 C2 A,2|G4 A2|F2 E2 D2|E3F G2|
A3B A2|G2 F2 E2|F2 A,2 B,2|=C4 A,2|
D3C D2|F2 E2 D2|G2 F2 G2|B4 c2|
d3e d2|c2 B2 A2|GF E2 A2|D4:|
|:d2|cB Gc BA|BA F2 d2|cB Gc BA|F2 A,B,CD|
EF G2 E2|FG A2 B2|e2 cd Bc|A4 d2|
cB Gc BA|BA F2 d2|cB Gc BA|F4 d2|
ed c2 d2|BA F2 A2|GF E2 A2|D4:|

